TF1/ip0.svg

<svg xmlns="http://www.w3.org/2000/svg" viewBox="0 0 1200 800" preserveAspectRatio="none" width="1200" height="800">
 <path d="M0,0H1200V800H0Z" style="fill: white;"></path>
 <g>
  <g transform="translate(120,80)">
   <path d="M0,0H960V640H0Z" style="fill: white; stroke: black; stroke-width: 1;"></path>
   <svg x="0" y="0" overflow="hidden" width="960" height="640" viewBox="0 0 960 640">
    <g>
     <path d="M0,633h10v7h48v-4h9v4h29v-4h10v-10h9v7h29v-29h10v14h9v15h10v-7h9v-15h20v-18h19v-3h9v-40h10v-11h10v7h9v4h10v-51h9v15h10v-62h10v8h9v-62h10v4h9v-7h10v-94h19v18h10v-72h9v-25h10v25h10v-22h9v-57h10v18h9v-69h10v-54h10v-33h9v101h10v-61h9v-32h10v108h10v-116h9v19h10v36h9v21h10v-7h10v94h9v47h10v-69h9v18h10v25h10v29h9v72h10v-50h9v83h10v58h10v3h9v-3h10v68h9v-50h10v61h10v43h9v-25h10v47h9v3h10v15h10v7h9v11h10v-4h9v26h10v-11h10v18h19v3h9v11h10v-3h19v10h19v4h29v-4h10v-3h9v7h20v-4h9v4h10v-4h9v4h10" style="stroke-linejoin: miter; stroke: #000099; stroke-width: 1; fill: none;"></path>
    </g>
    <g>
     <path d="M0,639.81C1.6,639.8,6.4,639.77,9.6,639.75S16,639.69,19.2,639.65S25.6,639.58,28.8,639.53S35.2,639.43,38.4,639.37S44.8,639.23,48,639.15S54.4,638.98,57.6,638.87S64.01,638.65,67.2,638.51S73.61,638.22,76.8,638.04S83.22,637.67,86.4,637.45S92.83,636.98,96,636.69S102.44,636.1,105.6,635.74S112.06,634.99,115.2,634.55S121.69,633.61,124.8,633.07S131.34,631.89,134.4,631.25S141,629.78,144,629.01S150.69,627.2,153.6,626.29S160.4,624.06,163.2,623.01S170.14,620.27,172.8,619.07S179.91,615.71,182.4,614.39S189.7,610.29,192,608.85S199.52,603.89,201.6,602.36S209.34,596.39,211.2,594.81S219.16,587.69,220.8,586.09S228.97,577.68,230.4,576.09S238.76,566.28,240,564.72S248.53,553.4,249.6,551.9S258.28,538.99,259.2,537.54S268.01,522.98,268.8,521.6S277.71,505.36,278.4,504.05S287.4,486.14,288,484.89S297.07,465.35,297.6,464.16S306.72,443.06,307.2,441.92S316.37,419.38,316.8,418.29S326,394.48,326.4,393.42S335.62,368.53,336,367.5S345.24,341.78,345.6,340.77S354.85,314.5,355.2,313.5S364.45,287.02,364.8,286.02S374.04,259.67,374.4,258.66S383.63,232.83,384,231.81S393.2,206.89,393.6,205.83S402.75,182.25,403.2,181.14S412.29,159.3,412.8,158.13S421.79,138.44,422.4,137.18S431.24,120.02,432,118.66S440.6,104.37,441.6,102.89S449.83,91.74,451.2,90.16S458.86,82.27,460.8,80.71S467.72,75.88,470.4,74.71S476.81,72.48,480,72.28S486.68,72.55,489.6,73.46S497.01,76.75,499.2,78.23S507.26,84.91,508.8,86.51S517.29,96.61,518.4,98.13S527.17,111.47,528,112.88S536.94,129.19,537.6,130.48S546.66,149.43,547.2,150.63S556.33,171.85,556.8,172.97S565.98,196.05,566.4,197.13S575.62,221.67,576,222.7S585.24,248.29,585.6,249.3S594.85,275.53,595.2,276.53S604.45,303.01,604.8,304.01S614.04,330.38,614.4,331.38S623.63,357.31,624,358.33S633.21,383.51,633.6,384.56S642.78,408.74,643.2,409.82S652.34,432.78,652.8,433.9S661.89,455.46,662.4,456.63S671.42,476.67,672,477.9S680.94,496.31,681.6,497.61S690.45,514.36,691.2,515.71S699.93,530.78,700.8,532.21S709.39,545.62,710.4,547.11S718.83,558.91,720,560.46S728.24,570.74,729.6,572.32S737.63,581.18,739.2,582.78S747.02,590.34,748.8,591.93S756.39,598.33,758.4,599.88S765.77,605.25,768,606.72S775.17,611.2,777.6,612.57S784.59,616.3,787.2,617.54S794.04,620.62,796.8,621.72S803.52,624.26,806.4,625.22S813.03,627.31,816,628.13S822.56,629.83,825.6,630.52S832.11,631.91,835.2,632.48S841.67,633.61,844.8,634.08S851.25,634.98,854.4,635.36S860.83,636.08,864,636.39S870.42,636.97,873.6,637.21S880.01,637.66,883.2,637.85S889.61,638.21,892.8,638.36S899.2,638.64,902.4,638.76S908.8,638.97,912,639.06S918.4,639.23,921.6,639.3S928,639.43,931.2,639.48S937.6,639.57,940.8,639.61S947.2,639.69,950.4,639.72S958.4,639.78,960,639.79" style="fill: none; stroke: red; stroke-width: 2;"></path>
    </g>
   </svg>
   <g>
    <g transform="translate(0,640)">
     <path d="M0,0h960M0,-24v24m24,-12v12m24,-12v12m24,-12v12m24,-12v12m24,-24v24m24,-12v12m24,-12v12m24,-12v12m24,-12v12m24,-24v24m24,-12v12m24,-12v12m24,-12v12m24,-12v12m24,-24v24m24,-12v12m24,-12v12m24,-12v12m24,-12v12m24,-24v24m24,-12v12m24,-12v12m24,-12v12m24,-12v12m24,-24v24m24,-12v12m24,-12v12m24,-12v12m24,-12v12m24,-24v24m24,-12v12m24,-12v12m24,-12v12m24,-12v12m24,-24v24m24,-12v12m24,-12v12m24,-12v12m24,-12v12m24,-24v24" style="stroke: black; stroke-width: 1;"></path>
     <g font-family="Arial" font-size="28" space="preserve" fill="black" text-anchor="middle">
      <text dy=".8em" transform="translate(0,6)">
       -4
      </text>
      <text dy=".8em" transform="translate(120,6)">
       -3
      </text>
      <text dy=".8em" transform="translate(240,6)">
       -2
      </text>
      <text dy=".8em" transform="translate(360,6)">
       -1
      </text>
      <text dy=".8em" transform="translate(480,6)">
       0
      </text>
      <text dy=".8em" transform="translate(600,6)">
       1
      </text>
      <text dy=".8em" transform="translate(720,6)">
       2
      </text>
      <text dy=".8em" transform="translate(840,6)">
       3
      </text>
      <text dy=".8em" transform="translate(960,6)">
       4
      </text>
     </g>
    </g>
    <g>
     <path d="M0,0v640M36,640h-36m18,-18h-18m18,-18h-18m18,-18h-18m36,-18h-36m18,-18h-18m18,-18h-18m18,-18h-18m36,-18h-36m18,-18h-18m18,-18h-18m18,-18h-18m36,-18h-36m18,-18h-18m18,-18h-18m18,-18h-18m36,-19h-36m18,-18h-18m18,-18h-18m18,-18h-18m36,-18h-36m18,-18h-18m18,-18h-18m18,-18h-18m36,-18h-36m18,-18h-18m18,-18h-18m18,-18h-18m36,-18h-36m18,-18h-18m18,-18h-18m18,-18h-18m36,-18h-36m18,-18h-18m18,-18h-18m18,-18h-18" style="stroke: black; stroke-width: 1;"></path>
     <g font-family="Arial" font-size="28" space="preserve" fill="black" text-anchor="end">
      <text dy=".4em" transform="translate(-4,640)">
       0
      </text>
      <text dy=".4em" transform="translate(-4,568)">
       20
      </text>
      <text dy=".4em" transform="translate(-4,496)">
       40
      </text>
      <text dy=".4em" transform="translate(-4,424)">
       60
      </text>
      <text dy=".4em" transform="translate(-4,351)">
       80
      </text>
      <text dy=".4em" transform="translate(-4,279)">
       100
      </text>
      <text dy=".4em" transform="translate(-4,207)">
       120
      </text>
      <text dy=".4em" transform="translate(-4,135)">
       140
      </text>
      <text dy=".4em" transform="translate(-4,63)">
       160
      </text>
     </g>
    </g>
   </g>
  </g>
  <g transform="translate(936,52)" font-family="Arial" font-size="25" space="preserve" fill="black">
   <path d="M0,0H240V128H0Z" style="fill: white; stroke: black; stroke-width: 1;"></path>
   <text text-anchor="middle" dy=".4em" transform="translate(120,16)">
    g
   </text>
   <text text-anchor="start" dy=".4em" transform="translate(12,48)">
    Entries
   </text>
   <text text-anchor="end" dy=".4em" transform="translate(228,48)">
    5000
   </text>
   <text text-anchor="start" dy=".4em" transform="translate(12,80)">
    Mean
   </text>
   <text text-anchor="end" dy=".4em" transform="translate(228,80)">
    0.008147
   </text>
   <text text-anchor="start" dy=".4em" transform="translate(12,112)">
    Std Dev
   </text>
   <text text-anchor="end" dy=".4em" transform="translate(228,112)">
    1.015
   </text>
   <path d="M0,32h240" style="stroke: black; stroke-width: 1;"></path>
  </g>
  <g transform="translate(576,4)" font-family="Arial" font-size="36" space="preserve">
   <text fill="black" text-anchor="middle" dy=".4em" transform="translate(24,22)">
    g
   </text>
  </g>
 </g>
</svg>

<svg xmlns="http://www.w3.org/2000/svg" viewBox="0 0 1200 800" preserveAspectRatio="none" width="1200" height="800">
 <path d="M0,0H1200V800H0Z" style="fill: white;"></path>
 <g>
  <g transform="translate(120,80)">
   <path d="M0,0H960V640H0Z" style="fill: white; stroke: black; stroke-width: 1;"></path>
   <svg x="0" y="0" overflow="hidden" width="960" height="640" viewBox="0 0 960 640">
    <g>
     <path d="M0,633h10v7h48v-4h9v4h29v-4h10v-10h9v7h29v-29h10v14h9v15h10v-7h9v-15h20v-18h19v-3h9v-40h10v-11h10v7h9v4h10v-51h9v15h10v-62h10v8h9v-62h10v4h9v-7h10v-94h19v18h10v-72h9v-25h10v25h10v-22h9v-57h10v18h9v-69h10v-54h10v-33h9v101h10v-61h9v-32h10v108h10v-116h9v19h10v36h9v21h10v-7h10v94h9v47h10v-69h9v18h10v25h10v29h9v72h10v-50h9v83h10v58h10v3h9v-3h10v68h9v-50h10v61h10v43h9v-25h10v47h9v3h10v15h10v7h9v11h10v-4h9v26h10v-11h10v18h19v3h9v11h10v-3h19v10h19v4h29v-4h10v-3h9v7h20v-4h9v4h10v-4h9v4h10" style="stroke-linejoin: miter; stroke: #000099; stroke-width: 1; fill: none;"></path>
    </g>
    <g>
     <path d="M0,639.81C1.6,639.8,6.4,639.77,9.6,639.75S16,639.69,19.2,639.65S25.6,639.58,28.8,639.53S35.2,639.43,38.4,639.37S44.8,639.23,48,639.15S54.4,638.98,57.6,638.87S64.01,638.65,67.2,638.51S73.61,638.22,76.8,638.04S83.22,637.67,86.4,637.45S92.83,636.98,96,636.69S102.44,636.1,105.6,635.74S112.06,634.99,115.2,634.55S121.69,633.61,124.8,633.07S131.34,631.89,134.4,631.25S141,629.78,144,629.01S150.69,627.2,153.6,626.29S160.4,624.06,163.2,623.01S170.14,620.27,172.8,619.07S179.91,615.71,182.4,614.39S189.7,610.29,192,608.85S199.52,603.89,201.6,602.36S209.34,596.39,211.2,594.81S219.16,587.69,220.8,586.09S228.97,577.68,230.4,576.09S238.76,566.28,240,564.72S248.53,553.4,249.6,551.9S258.28,538.99,259.2,537.54S268.01,522.98,268.8,521.6S277.71,505.36,278.4,504.05S287.4,486.14,288,484.89S297.07,465.35,297.6,464.16S306.72,443.06,307.2,441.92S316.37,419.38,316.8,418.29S326,394.48,326.4,393.42S335.62,368.53,336,367.5S345.24,341.78,345.6,340.77S354.85,314.5,355.2,313.5S364.45,287.02,364.8,286.02S374.04,259.67,374.4,258.66S383.63,232.83,384,231.81S393.2,206.89,393.6,205.83S402.75,182.25,403.2,181.14S412.29,159.3,412.8,158.13S421.79,138.44,422.4,137.18S431.24,120.02,432,118.66S440.6,104.37,441.6,102.89S449.83,91.74,451.2,90.16S458.86,82.27,460.8,80.71S467.72,75.88,470.4,74.71S476.81,72.48,480,72.28S486.68,72.55,489.6,73.46S497.01,76.75,499.2,78.23S507.26,84.91,508.8,86.51S517.29,96.61,518.4,98.13S527.17,111.47,528,112.88S536.94,129.19,537.6,130.48S546.66,149.43,547.2,150.63S556.33,171.85,556.8,172.97S565.98,196.05,566.4,197.13S575.62,221.67,576,222.7S585.24,248.29,585.6,249.3S594.85,275.53,595.2,276.53S604.45,303.01,604.8,304.01S614.04,330.38,614.4,331.38S623.63,357.31,624,358.33S633.21,383.51,633.6,384.56S642.78,408.74,643.2,409.82S652.34,432.78,652.8,433.9S661.89,455.46,662.4,456.63S671.42,476.67,672,477.9S680.94,496.31,681.6,497.61S690.45,514.36,691.2,515.71S699.93,530.78,700.8,532.21S709.39,545.62,710.4,547.11S718.83,558.91,720,560.46S728.24,570.74,729.6,572.32S737.63,581.18,739.2,582.78S747.02,590.34,748.8,591.93S756.39,598.33,758.4,599.88S765.77,605.25,768,606.72S775.17,611.2,777.6,612.57S784.59,616.3,787.2,617.54S794.04,620.62,796.8,621.72S803.52,624.26,806.4,625.22S813.03,627.31,816,628.13S822.56,629.83,825.6,630.52S832.11,631.91,835.2,632.48S841.67,633.61,844.8,634.08S851.25,634.98,854.4,635.36S860.83,636.08,864,636.39S870.42,636.97,873.6,637.21S880.01,637.66,883.2,637.85S889.61,638.21,892.8,638.36S899.2,638.64,902.4,638.76S908.8,638.97,912,639.06S918.4,639.23,921.6,639.3S928,639.43,931.2,639.48S937.6,639.57,940.8,639.61S947.2,639.69,950.4,639.72S958.4,639.78,960,639.79" style="fill: none; stroke: red; stroke-width: 2;"></path>
    </g>
   </svg>
   <g>
    <g transform="translate(0,640)">
     <path d="M0,0h960M0,-24V0M24,-12V0M48,-12V0M72,-12V0M96,-12V0M120,-24V0M144,-12V0M168,-12V0M192,-12V0M216,-12V0M240,-24V0M264,-12V0M288,-12V0M312,-12V0M336,-12V0M360,-24V0M384,-12V0M408,-12V0M432,-12V0M456,-12V0M480,-24V0M504,-12V0M528,-12V0M552,-12V0M576,-12V0M600,-24V0M624,-12V0M648,-12V0M672,-12V0M696,-12V0M720,-24V0M744,-12V0M768,-12V0M792,-12V0M816,-12V0M840,-24V0M864,-12V0M888,-12V0M912,-12V0M936,-12V0M960,-24V0" style="stroke: black; stroke-width: 1;"></path>
     <g font-family="Arial" font-size="28" space="preserve" fill="black" text-anchor="middle">
      <text dy=".8em" transform="translate(0,6)">
       -4
      </text>
      <text dy=".8em" transform="translate(120,6)">
       -3
      </text>
      <text dy=".8em" transform="translate(240,6)">
       -2
      </text>
      <text dy=".8em" transform="translate(360,6)">
       -1
      </text>
      <text dy=".8em" transform="translate(480,6)">
       0
      </text>
      <text dy=".8em" transform="translate(600,6)">
       1
      </text>
      <text dy=".8em" transform="translate(720,6)">
       2
      </text>
      <text dy=".8em" transform="translate(840,6)">
       3
      </text>
      <text dy=".8em" transform="translate(960,6)">
       4
      </text>
     </g>
    </g>
    <g>
     <path d="M0,0v640M36,640H0M18,622H0M18,604H0M18,586H0M36,568H0M18,550H0M18,532H0M18,514H0M36,496H0M18,478H0M18,460H0M18,442H0M36,424H0M18,406H0M18,388H0M18,370H0M36,351H0M18,333H0M18,315H0M18,297H0M36,279H0M18,261H0M18,243H0M18,225H0M36,207H0M18,189H0M18,171H0M18,153H0M36,135H0M18,117H0M18,99H0M18,81H0M36,63H0M18,45H0M18,27H0M18,9H0" style="stroke: black; stroke-width: 1;"></path>
     <g font-family="Arial" font-size="28" space="preserve" fill="black" text-anchor="end">
      <text dy=".4em" transform="translate(-4,640)">
       0
      </text>
      <text dy=".4em" transform="translate(-4,568)">
       20
      </text>
      <text dy=".4em" transform="translate(-4,496)">
       40
      </text>
      <text dy=".4em" transform="translate(-4,424)">
       60
      </text>
      <text dy=".4em" transform="translate(-4,351)">
       80
      </text>
      <text dy=".4em" transform="translate(-4,279)">
       100
      </text>
      <text dy=".4em" transform="translate(-4,207)">
       120
      </text>
      <text dy=".4em" transform="translate(-4,135)">
       140
      </text>
      <text dy=".4em" transform="translate(-4,63)">
       160
      </text>
     </g>
    </g>
   </g>
  </g>
  <g transform="translate(936,52)" font-family="Arial" font-size="25" space="preserve" fill="black">
   <path d="M0,0H240V128H0Z" style="fill: white; stroke: black; stroke-width: 1;"></path>
   <text text-anchor="middle" dy=".4em" transform="translate(120,16)">
    g
   </text>
   <text text-anchor="start" dy=".4em" transform="translate(12,48)">
    Entries
   </text>
   <text text-anchor="end" dy=".4em" transform="translate(228,48)">
    5000
   </text>
   <text text-anchor="start" dy=".4em" transform="translate(12,80)">
    Mean
   </text>
   <text text-anchor="end" dy=".4em" transform="translate(228,80)">
    0.008147
   </text>
   <text text-anchor="start" dy=".4em" transform="translate(12,112)">
    Std Dev
   </text>
   <text text-anchor="end" dy=".4em" transform="translate(228,112)">
    1.015
   </text>
   <path d="M0,32h240" style="stroke: black; stroke-width: 1;"></path>
  </g>
  <g transform="translate(576,4)" font-family="Arial" font-size="36" space="preserve">
   <text fill="black" text-anchor="middle" dy=".4em" transform="translate(24,22)">
    g
   </text>
  </g>
 </g>
</svg>
